**kern
*clefG2	*clefF4
*k[]	*k[b-]
*M2/2	*M2/2
=1-	=1-
16a
4b
4b
8cc
8cc
8r
(16dd#
=2	=2
16dd)
(16cc
2dd)
4r
8dd
=3	=3
4cc
2b-
8r
16r
16cc
=4	=4
2cc
4b
16cc
16b
16a
(16b-
=5	=5
1b
=6	=6
16b)
8cc
8b
16a
(8g
8g)
8a
4b
=7	=7
4r
2a
16a
8a
16b
=8	=8
4r
4b
4.b
16a
16a
=9	=9
16a-
16b
2b
(4b
16a-)
16b
=10	=10
4b
2a
16b-
8b-
16cc
=11
*_